icons/MagnifyingGlassMinus.svg

<svg width="24" height="24" viewBox="0 0 24 24" fill="none" xmlns="http://www.w3.org/2000/svg">
<path fill-rule="evenodd" clip-rule="evenodd" d="M3.25,10.75c0,-4.14214 3.35786,-7.5 7.5,-7.5c4.1421,0 7.5,3.35786 7.5,7.5c0,1.801 -0.6348,3.4536 -1.6928,4.7465l3.9731,3.9732c0.2929,0.2929 0.2929,0.7677 0,1.0606c-0.2929,0.2929 -0.7677,0.2929 -1.0606,0l-3.9732,-3.9731c-1.2929,1.058 -2.9455,1.6928 -4.7465,1.6928c-4.14214,0 -7.5,-3.3579 -7.5,-7.5zM10.75,4.75c-3.31371,0 -6,2.68629 -6,6c0,3.3137 2.68629,6 6,6c3.3137,0 6,-2.6863 6,-6c0,-3.31371 -2.6863,-6 -6,-6zM7.00001,10.7501c0,-0.4143 0.33578,-0.75 0.75,-0.75l5.99999,-0.0001c0.4142,0 0.75,0.3358 0.75,0.75c0,0.4142 -0.3358,0.75 -0.75,0.75l-5.99999,0.0001c-0.41421,0 -0.75,-0.3358 -0.75,-0.75z" fill="#002B51"/>
</svg>

<svg width="24" height="24" viewBox="0 0 24 24" fill="none" xmlns="http://www.w3.org/2000/svg">
<path fill-rule="evenodd" clip-rule="evenodd" d="M3.25 10.75C3.25 6.60786 6.60786 3.25 10.75 3.25C14.8921 3.25 18.25 6.60786 18.25 10.75C18.25 12.551 17.6152 14.2036 16.5572 15.4965L20.5303 19.4697C20.8232 19.7626 20.8232 20.2374 20.5303 20.5303C20.2374 20.8232 19.7626 20.8232 19.4697 20.5303L15.4965 16.5572C14.2036 17.6152 12.551 18.25 10.75 18.25C6.60786 18.25 3.25 14.8921 3.25 10.75ZM10.75 4.75C7.43629 4.75 4.75 7.43629 4.75 10.75C4.75 14.0637 7.43629 16.75 10.75 16.75C14.0637 16.75 16.75 14.0637 16.75 10.75C16.75 7.43629 14.0637 4.75 10.75 4.75ZM7.75001 11.5001L13.75 11.5C14.1642 11.5 14.5 11.1642 14.5 10.75C14.5 10.3358 14.1642 10 13.75 10L7.75001 10.0001C7.33579 10.0001 7.00001 10.3358 7.00001 10.7501C7.00001 11.1643 7.3358 11.5001 7.75001 11.5001Z" fill="#002B51"/>
</svg>
